Img/behance.svg

<svg xmlns="http://www.w3.org/2000/svg" width="24" height="24" viewBox="0 0 24 24"><path d="M22 7h-7v-2h7v2zm1.726 10c-.442 1.297-2.029 3-5.101 3-3.074 0-5.564-1.729-5.564-5.675 0-3.91 2.325-5.92 5.466-5.92 3.082 0 4.964 1.782 5.375 4.426.078.506.109 1.188.095 2.14h-8.027c.13 3.211 3.483 3.312 4.588 2.029h3.168zm-7.686-4h4.965c-.105-1.547-1.136-2.219-2.477-2.219-1.466 0-2.277.768-2.488 2.219zm-9.574 6.988h-6.466v-14.967h6.953c5.476.081 5.58 5.444 2.72 6.906 3.461 1.26 3.577 8.061-3.207 8.061zm-3.466-8.988h3.584c2.508 0 2.906-3-.312-3h-3.272v3zm3.391 3h-3.391v3.016h3.341c3.055 0 2.868-3.016.05-3.016z"/></svg>

<?xml version="1.0" encoding="utf-8"?>
<!-- Generator: Adobe Illustrator 25.0.0, SVG Export Plug-In . SVG Version: 6.00 Build 0)  -->
<svg version="1.1" id="Capa_1" xmlns="http://www.w3.org/2000/svg" xmlns:xlink="http://www.w3.org/1999/xlink" x="0px" y="0px"
	 viewBox="0 0 24 24" style="enable-background:new 0 0 24 24;" xml:space="preserve">
<style type="text/css">
	.st0{fill:#FFFFFF;}
</style>
<path class="st0" d="M22,7h-7V5h7V7z M23.7,17c-0.4,1.3-2,3-5.1,3c-3.1,0-5.6-1.7-5.6-5.7c0-3.9,2.3-5.9,5.5-5.9
	c3.1,0,5,1.8,5.4,4.4C24,13.3,24,14,24,15h-8c0.1,3.2,3.5,3.3,4.6,2C20.6,17,23.7,17,23.7,17z M16,13h5c-0.1-1.5-1.1-2.2-2.5-2.2
	C17.1,10.8,16.3,11.5,16,13z M6.5,20H0V5h7c5.5,0.1,5.6,5.4,2.7,6.9C13.1,13.2,13.2,20,6.5,20z M3,11h3.6c2.5,0,2.9-3-0.3-3H3
	C3,8,3,11,3,11z M6.4,14H3v3h3.3C9.4,17,9.2,14,6.4,14z"/>
</svg>
